assets/icons/uE012-help.svg

<svg xmlns="http://www.w3.org/2000/svg" width="896" height="1232" viewBox="0 0 896 1232"><path d="M765 187q131 133 131 317T765 821Q632 952 448 952T131 821Q0 690 0 504t131-317Q264 56 448 56t317 131zm-40 594q115-115 115-277T725 227Q611 112 448 112T171 227Q56 342 56 504t115 277q114 115 277 115t277-115zM456 308q67 0 106 29.5t39 86.5q0 67-56 94-38 19-53 32.5T476 588h-56q0-32 3-49t18-35.5 46-32.5q21-11 28.5-19.5T523 428q0-42-67-42-54 0-98 48l-50-60q62-66 148-66zm34 378q0-17-12.5-29.5T448 644t-29.5 12.5T406 686t12.5 29.5T448 728t29.5-12.5T490 686z"/></svg>

<?xml version="1.0" encoding="UTF-8" standalone="no"?><svg   xmlns:svg="http://www.w3.org/2000/svg"   xmlns="http://www.w3.org/2000/svg"   version="1.1"   width="896"   height="1232"   viewBox="0 0 896 1232">  <path     d="M765 187Q896 320 896 504T765 821Q632 952 448 952T131 821Q0 690 0 504T131 187Q264 56 448 56T765 187zM725 781Q840 666 840 504T725 227Q611 112 448 112T171 227Q56 342 56 504T171 781Q285 896 448 896T725 781zM456 308Q523 308 562 337.5T601 424Q601 491 545 518Q507 537 492 550.5T476 588H420Q420 556 423 539T441 503.5T487 471Q508 460 515.5 451.5T523 428Q523 386 456 386Q402 386 358 434L308 374Q370 308 456 308zM490 686Q490 669 477.5 656.5T448 644T418.5 656.5T406 686T418.5 715.5T448 728T477.5 715.5T490 686z"     id="icon72" /></svg>
